!!!COM:      Bach, Johann Sebastian
!!!CDT:      1685/03/31/-1750/07/28/
!!!OPR@@GER: Das wohltemperirte Clavier
!!!OVM@@GER: Band I
!!!OPR@ENG:  Well-Tempered Clavier
!!!OVM@ENG:  Book I
!!!OTL:      Fugue
!!!OKY:      A minor
!!!ONM:      no. 20
!!!SCT:      BWV 865
!!!OMV:      2
**kern	**kern	**kern	**kern	**kern	**kern	**kern
*clefF4	*	*	*clefF4	*	*	*clefG2
*M4/4	*	*	*M4/4	*	*	*M4/4
*met(c)	*	*	*met(c)	*	*	*met(c)
*MM61	*MM61	*MM61	*MM61	*MM61	*MM61	*MM61
=1-	=1-	=1-	=1-	=1-	=1-	=1-
1r	1ryy	1ryy	8r	1ryy	1ryy	1r
.	.	.	16A	.	.	.
.	.	.	16G#	.	.	.
.	.	.	8A	.	.	.
.	.	.	8B	.	.	.
.	.	.	8c	.	.	.
.	.	.	16c	.	.	.
.	.	.	16B	.	.	.
.	.	.	8c	.	.	.
.	.	.	8d	.	.	.
=2	=2	=2	=2	=2	=2	=2
1r	1ryy	1ryy	16e	1ryy	1ryy	1r
.	.	.	16d	.	.	.
.	.	.	16c	.	.	.
.	.	.	16d	.	.	.
.	.	.	8e	.	.	.
.	.	.	8f	.	.	.
.	.	.	8G#	.	.	.
.	.	.	8E	.	.	.
.	.	.	8r	.	.	.
.	.	.	8A	.	.	.
=3	=3	=3	=3	=3	=3	=3
1r	1ryy	1ryy	16B	1ryy	1ryy	1r
.	.	.	16c	.	.	.
.	.	.	16A	.	.	.
.	.	.	16B	.	.	.
.	.	.	16c	.	.	.
.	.	.	16d	.	.	.
.	.	.	16B	.	.	.
.	.	.	16c	.	.	.
.	.	.	8d	.	.	.
.	.	.	8c	.	.	.
.	.	.	8B	.	.	.
.	.	.	8e	.	.	.
=4	=4	=4	=4	=4	=4	=4
1r	1ryy	1ryy	4A	1ryy	1ryy	8r
.	.	.	.	.	.	16e
.	.	.	.	.	.	16d#
.	.	.	8G	.	.	8e
.	.	.	8F#	.	.	8f#
.	.	.	8E	.	.	8g
.	.	.	8c	.	.	16g
.	.	.	.	.	.	16f#
.	.	.	8B	.	.	8g
.	.	.	8A	.	.	8a
=5	=5	=5	=5	=5	=5	=5
*	*	*	*clefG2	*	*	*
1r	1ryy	1ryy	16G	1ryy	1ryy	16b
.	.	.	16F#	.	.	16a
.	.	.	16E	.	.	16g
.	.	.	16F#	.	.	16a
.	.	.	8G	.	.	8b
.	.	.	8A	.	.	8cc
.	.	.	16B	.	.	8d#
.	.	.	16A	.	.	.
.	.	.	16G	.	.	8B
.	.	.	16A	.	.	.
.	.	.	8B	.	.	8r
.	.	.	[8c	.	.	8e
=6	=6	=6	=6	=6	=6	=6
1r	1ryy	1ryy	8c]	1ryy	1ryy	16f#
.	.	.	.	.	.	16g
.	.	.	16B	.	.	16e
.	.	.	16A	.	.	16f#
.	.	.	8B	.	.	16g
.	.	.	.	.	.	16a
.	.	.	[8e	.	.	16f#
.	.	.	.	.	.	16g
.	.	.	8e]	.	.	8a
.	.	.	16d	.	.	8g
.	.	.	16c#	.	.	.
.	.	.	[4d	.	.	8f#X
.	.	.	.	.	.	8b
=7	=7	=7	=7	=7	=7	=7
1r	1ryy	1ryy	8d]	1ryy	1ryy	8e
.	.	.	16cn	.	.	16f#
.	.	.	16B	.	.	16g#
.	.	.	[4c	.	.	16a
.	.	.	.	.	.	16b
.	.	.	.	.	.	16cc
.	.	.	.	.	.	16dd
.	.	.	16c]	.	.	8ee
.	.	.	16a	.	.	.
.	.	.	16gn	.	.	8a
.	.	.	16fn	.	.	.
.	.	.	16e	.	.	4g#
.	.	.	16d	.	.	.
.	.	.	16c	.	.	.
.	.	.	16B	.	.	.
=8	=8	=8	=8	=8	=8	=8
8r	1ryy	1ryy	16c	1ryy	1ryy	8a
.	.	.	16B	.	.	.
16AA	.	.	4c	.	.	8a
16GG#	.	.	.	.	.	.
8AA	.	.	.	.	.	8gn
8BB	.	.	8d	.	.	8f
8C	.	.	16e	.	.	8e
.	.	.	16d	.	.	.
16C	.	.	4e	.	.	8cc
16BB	.	.	.	.	.	.
8C	.	.	.	.	.	8b
8D	.	.	[8f	.	.	8a
=9	=9	=9	=9	=9	=9	=9
16E	1ryy	1ryy	16f]	1ryy	1ryy	8g#
16D	.	.	16f#	.	.	.
16C	.	.	16e	.	.	8ee
16D	.	.	16f#	.	.	.
8E	.	.	8g#X	.	.	8dd
8F	.	.	8a	.	.	8cc
8GG#	.	.	4b	.	.	16b
.	.	.	.	.	.	16cc
8EE	.	.	.	.	.	16dd
.	.	.	.	.	.	16b
8r	.	.	8r	.	.	16cc
.	.	.	.	.	.	16b
8AA	.	.	8a	.	.	16a
.	.	.	.	.	.	16cc
=10	=10	=10	=10	=10	=10	=10
16BB	1ryy	1ryy	[4gn	1ryy	1ryy	16dd
16C	.	.	.	.	.	16ee
16AA	.	.	.	.	.	16ff
16BB	.	.	.	.	.	16dd
16C#	.	.	16g]	.	.	[4ee
16D	.	.	16f	.	.	.
16BB	.	.	16e	.	.	.
16C#	.	.	16g	.	.	.
8D	.	.	4f#	.	.	8ee]
8Cn	.	.	.	.	.	8a
8BB	.	.	4g#	.	.	16b
.	.	.	.	.	.	16cc
8E	.	.	.	.	.	[8dd
=11	=11	=11	=11	=11	=11	=11
*	*staff:9	*	*	*	*	*
*	*clefF4	*	*	*	*	*
8AA	8r	1ryy	8a	1ryy	1ryy	8dd]
8BB	16E	.	8a	.	.	8cc
.	16D#	.	.	.	.	.
8C#	8E	.	8gn	.	.	8b
8D#X	8F#	.	8f#	.	.	8a
8E	8G	.	8e	.	.	8g
16E	16G	.	8cc	.	.	8ee
16Dn	16F#	.	.	.	.	.
8E	8G	.	8b	.	.	8dd
8F#X	8A	.	8a	.	.	8cc
=12	=12	=12	=12	=12	=12	=12
4G	16B	1ryy	16g	1ryy	1ryy	4b
.	16A	.	16f#	.	.	.
.	16G	.	16e	.	.	.
.	16A	.	16f#	.	.	.
8r	8B	.	8g	.	.	8r
8A	8c	.	[8f#	.	.	[8a
8B	8D#	.	8f#]	.	.	8a]
16BB	8BB	.	16e	.	.	16g
16AA	.	.	16d#	.	.	16f#X
8GG	8r	.	[4e	.	.	16g
.	.	.	.	.	.	16a
8EE	8E	.	.	.	.	16b
.	.	.	.	.	.	16g
=13	=13	=13	=13	=13	=13	=13
4AA	16F#	1ryy	8e]	1ryy	1ryy	4cc
.	16G	.	.	.	.	.
.	16E	.	16a	.	.	.
.	16F#	.	16d#	.	.	.
4BB	16G	.	[4e	.	.	8r
.	16A	.	.	.	.	.
.	16F#	.	.	.	.	8b
.	16G	.	.	.	.	.
8C	8A	.	4.e]	.	.	16a
.	.	.	.	.	.	16g
8BB	8G	.	.	.	.	16a
.	.	.	.	.	.	16b
8AA	8F#X	.	.	.	.	8cc
16BB	8B	.	8d#X	.	.	8f#
16AA	.	.	.	.	.	.
=14	=14	=14	=14	=14	=14	=14
8GG	4E	1ryy	4.e	1ryy	1ryy	16b
.	.	.	.	.	.	16a
8AA	.	.	.	.	.	16cc
.	.	.	.	.	.	16b
4BB	8B	.	.	.	.	16a
.	.	.	.	.	.	16g
.	8A	.	8d#	.	.	16f#
.	.	.	.	.	.	16g
8E	8G#	.	8e	.	.	8e
8D	8E	.	8r	.	.	16ee
.	.	.	.	.	.	16ffn
8C	8F#	.	4r	.	.	8ee
8BB	8G#	.	.	.	.	8ddn
=15	=15	=15	=15	=15	=15	=15
8AA	8A	1ryy	8r	1ryy	1ryy	8cc
8B	8r	.	8e	.	.	16cc
.	.	.	.	.	.	16dd
8A	4r	.	8f#	.	.	8cc
8Gn	.	.	8g	.	.	8b
8F#	8r	.	8a	.	.	16a
.	.	.	.	.	.	16b
8G	8A	.	8r	.	.	16cc
.	.	.	.	.	.	16b
8F#	8B	.	4r	.	.	8a
8E	8c#	.	.	.	.	8g
=16	=16	=16	=16	=16	=16	=16
8D	8d	1ryy	8r	1ryy	1ryy	8ff#
8E	8r	.	8d	.	.	8aa
8D	4r	.	8e	.	.	8r
8C	.	.	8f#X	.	.	8ee
8BB	8r	.	8g	.	.	16dd
.	.	.	.	.	.	16cc
4G	8B	.	8r	.	.	16ee
.	.	.	.	.	.	16dd
.	4A	.	4r	.	.	16cc
.	.	.	.	.	.	16b
8F#	.	.	.	.	.	16dd
.	.	.	.	.	.	16cc
=17	=17	=17	=17	=17	=17	=17
16G	[2G	1ryy	2r	1ryy	1ryy	8b
16E	.	.	.	.	.	.
16D	.	.	.	.	.	8cc
16C	.	.	.	.	.	.
8BB	.	.	.	.	.	16dd
.	.	.	.	.	.	16b
8E	.	.	.	.	.	16a
.	.	.	.	.	.	16g
8C	8G]	.	8r	.	.	32ee
.	.	.	.	.	.	32ff#
.	.	.	.	.	.	16ee
8AA	4A	.	16dd	.	.	16ff#
.	.	.	16ee	.	.	16gg
8D	.	.	8dd	.	.	8.ff#
8DD	[8D	.	8cc	.	.	.
.	.	.	.	.	.	16gg
=18	=18	=18	=18	=18	=18	=18
8GG	8D]	1ryy	8b	1ryy	1ryy	[2gg
*clefG2	*clefG2	*	*	*	*	*
8r	16g	.	16b	.	.	.
.	16a	.	16cc	.	.	.
4r	8g	.	8b	.	.	.
.	8f	.	8a	.	.	.
2r	8e	.	4g	.	.	8gg]
.	16e	.	.	.	.	16gg
.	16f	.	.	.	.	16aa
.	8e	.	8a	.	.	8gg
.	8d	.	8b	.	.	8ff
=19	=19	=19	=19	=19	=19	=19
1ryy	16c	1ryy	4cc	1ryy	1ryy	16ee
.	16d	.	.	.	.	16dd
.	16e	.	.	.	.	16cc
.	16d	.	.	.	.	16dd
.	8c	.	8r	.	.	16ee
.	.	.	.	.	.	16ff
.	8B-	.	8dd	.	.	[8gg
.	8a	.	8.cc#	.	.	16gg]
.	.	.	.	.	.	16ff
.	8cc#	.	.	.	.	16ee
.	.	.	16dd	.	.	16ff
.	8r	.	[4ee	.	.	16gg
.	.	.	.	.	.	16aa
.	8g	.	.	.	.	16bb-
.	.	.	.	.	.	16gg
=20	=20	=20	=20	=20	=20	=20
*	*staff:3	*	*staff:4	*	*	*staff:4
1ryy	16f	1ryy	16ee]	1ryy	1ryy	8.aa
.	16e	.	16cc#	.	.	.
.	16g	.	[8dd	.	.	.
.	16f	.	.	.	.	16bb-
.	16e	.	16dd]	.	.	8.gg
.	16d	.	16bn	.	.	.
.	16f	.	8cc#X	.	.	.
.	16e	.	.	.	.	16aa
.	8d	.	4dd	.	.	16ff
.	.	.	.	.	.	16ee
.	8e	.	.	.	.	16ff
.	.	.	.	.	.	16gg
.	16f	.	8r	.	.	8aa
.	16e	.	.	.	.	.
.	16d	.	8f	.	.	8a
.	16c	.	.	.	.	.
*	*clefF4	*	*	*	*	*
=21	=21	=21	=21	=21	=21	=21
*clefF4	*	*	*	*	*	*
8r	8B-	1ryy	16g	1ryy	1ryy	16dd
.	.	.	16cc#	.	.	16gg
16A	16A	.	16dd	.	.	16ff
16B-X	16G	.	16ee	.	.	16ee
8A	[4A	.	4cc#	.	.	8.ee
8G	.	.	.	.	.	.
.	.	.	.	.	.	16dd
8F	8A]	.	8dd	.	.	4.dd
16F	8A	.	16a	.	.	.
16G	.	.	16b-	.	.	.
8F	8Bn	.	8a	.	.	.
8E	8c#	.	8g	.	.	8ee
=22	=22	=22	=22	=22	=22	=22
16D	8d	1ryy	8f	1ryy	1ryy	[2ff
16E	.	.	.	.	.	.
16F	8r	.	8a	.	.	.
16E	.	.	.	.	.	.
8D	4r	.	8bn	.	.	.
8C	.	.	8cc	.	.	.
8B	2ryy	.	16dd	.	.	4ff_
.	.	.	16cc	.	.	.
8d	.	.	16b	.	.	.
.	.	.	16a	.	.	.
8r	.	.	8g	.	.	16ff]
.	.	.	.	.	.	16ee
8A	.	.	[8f	.	.	16dd
.	.	.	.	.	.	16cc
=23	=23	=23	=23	=23	=23	=23
16G	1ryy	1ryy	8f]	1ryy	1ryy	8b
16F	.	.	.	.	.	.
16A	.	.	8e	.	.	4cc
16G	.	.	.	.	.	.
16F	.	.	4d	.	.	.
16E	.	.	.	.	.	.
16G	.	.	.	.	.	8b
16F	.	.	.	.	.	.
8E	.	.	16r	.	.	4.cc
.	.	.	16a	.	.	.
8F	.	.	16g	.	.	.
.	.	.	16f	.	.	.
16G	.	.	8e	.	.	.
16E	.	.	.	.	.	.
16D	.	.	[8g	.	.	8b-
16C	.	.	.	.	.	.
=24	=24	=24	=24	=24	=24	=24
16F	2r	1ryy	8g]	1ryy	1ryy	[2a
16E	.	.	.	.	.	.
16D	.	.	16f	.	.	.
16C	.	.	16g	.	.	.
16D	.	.	8f	.	.	.
16E	.	.	.	.	.	.
16F	.	.	8e	.	.	.
16D	.	.	.	.	.	.
4BB	8r	.	8d	.	.	8a]
.	16B	.	16d	.	.	8g#
.	16c	.	16e	.	.	.
8C	8B	.	8d	.	.	8a
[8D	8A	.	8c	.	.	8b
=25	=25	=25	=25	=25	=25	=25
8D]	4.G#	1ryy	16B	1ryy	1ryy	[4e
.	.	.	16c	.	.	.
8E	.	.	16d	.	.	.
.	.	.	16c	.	.	.
8D	.	.	8B	.	.	16e]
.	.	.	.	.	.	16f#
8C	8E	.	8A	.	.	16g#
.	.	.	.	.	.	16a
8BB	8D	.	8g#X	.	.	16b
.	.	.	.	.	.	16cc
16D	16F	.	8b	.	.	16b
16C	16E	.	.	.	.	16cc
8BB	8D	.	8r	.	.	[4dd
8AA	8C	.	8fn	.	.	.
=26	=26	=26	=26	=26	=26	=26
8GG#	8BB	1ryy	16e	1ryy	1ryy	8dd]
.	.	.	16d	.	.	.
8AA	8C	.	16f	.	.	4cc
.	.	.	16e	.	.	.
8BB	8D	.	16d	.	.	.
.	.	.	16c	.	.	.
8GG#	8BB	.	16e	.	.	[8b
.	.	.	16d	.	.	.
8AA	4.E	.	8c	.	.	8b]
8BB	.	.	8d	.	.	16a
.	.	.	.	.	.	16g#
8C	.	.	16e	.	.	[4a
.	.	.	16c	.	.	.
8F	[8F	.	16B	.	.	.
.	.	.	16A	.	.	.
=27	=27	=27	=27	=27	=27	=27
8D	8F]	1ryy	16f	1ryy	1ryy	4a]
.	.	.	16d	.	.	.
8BB	8D	.	16e	.	.	.
.	.	.	16f	.	.	.
8E	8E	.	8.B	.	.	4g#
8EE	8D	.	.	.	.	.
.	.	.	16A	.	.	.
8AA	8C	.	8A	.	.	8a
8A	8r	.	8r	.	.	16a
.	.	.	.	.	.	16g#X
8C	4r	.	4r	.	.	8a
8E	.	.	.	.	.	8b
=28	=28	=28	=28	=28	=28	=28
8AA	8r	1ryy	1r	1ryy	1ryy	8cc
8F	16A	.	.	.	.	16cc
.	16G#	.	.	.	.	16b
8E	8A	.	.	.	.	8cc
8D	8B	.	.	.	.	8dd
8C	8c	.	.	.	.	16ee
.	.	.	.	.	.	16dd
8A	16c	.	.	.	.	16cc
.	16B	.	.	.	.	16dd
8Gn	8c	.	.	.	.	8ee
8F	8d	.	.	.	.	8ff
=29	=29	=29	=29	=29	=29	=29
8E	16e	1ryy	1ryy	1ryy	1ryy	8g#
.	16d	.	.	.	.	.
16A	16c	.	.	.	.	8e
16G	16d	.	.	.	.	.
16F	8e	.	.	.	.	8r
16E	.	.	.	.	.	.
16D	8f	.	.	.	.	8a
16C	.	.	.	.	.	.
8BB	8G#	.	.	.	.	16b
.	.	.	.	.	.	16cc
16c	8E	.	.	.	.	16a
16B	.	.	.	.	.	16b
16A	8r	.	.	.	.	16cc
16Gn	.	.	.	.	.	16dd
16F	8A	.	.	.	.	16b
16E	.	.	.	.	.	16cc
=30	=30	=30	=30	=30	=30	=30
8D	16B	1ryy	1ryy	1ryy	1ryy	8dd
.	16c	.	.	.	.	.
8r	16A	.	.	.	.	8cc
.	16B	.	.	.	.	.
8E	16c	.	.	.	.	8b
.	16d	.	.	.	.	.
8r	16B	.	.	.	.	8ee
.	16c	.	.	.	.	.
8F	8d	.	.	.	.	8a
8E	8c	.	.	.	.	4aa
8D	8B	.	.	.	.	.
8E	8e	.	.	.	.	[8gg
=31	=31	=31	=31	=31	=31	=31
8C	[2A	1ryy	2r	1ryy	1ryy	8gg]
8BB	.	.	.	.	.	16ccc
.	.	.	.	.	.	16bb
8C	.	.	.	.	.	16aa
.	.	.	.	.	.	16gg
8AA	.	.	.	.	.	16ff#
.	.	.	.	.	.	16ee
4.BB	8A]	.	8r	.	.	8dd#
.	16G	.	16e	.	.	8b
.	16F#	.	16d#X	.	.	.
.	8G	.	8e	.	.	8cc#
8AA	8A	.	8f#X	.	.	8dd#X
=32	=32	=32	=32	=32	=32	=32
8GG	8B	1ryy	8g	1ryy	1ryy	16ee
.	.	.	.	.	.	16ddn
16E	4e	.	16g	.	.	16ccn
16D#	.	.	16f#	.	.	16b
8E	.	.	8g	.	.	4cc
8F#	8d#X	.	8a	.	.	.
8G	8e	.	16b	.	.	8b
.	.	.	16a	.	.	.
16G	8r	.	16g	.	.	16ee
16F#	.	.	16a	.	.	16dd#
8G	4r	.	8b	.	.	8ee
8A	.	.	8cc	.	.	8ff#X
=33	=33	=33	=33	=33	=33	=33
16B	1ryy	1ryy	8d#	1ryy	1ryy	8gg
16A	.	.	.	.	.	.
16G	.	.	8B	.	.	16gg
16A	.	.	.	.	.	16ff#
8B	.	.	8r	.	.	8gg
8c	.	.	8e	.	.	8aa
8D#	.	.	16f#X	.	.	[2b
.	.	.	16g	.	.	.
8BB	.	.	16e	.	.	.
.	.	.	16f#	.	.	.
8r	.	.	16g	.	.	.
.	.	.	16a	.	.	.
8E	.	.	16f#	.	.	.
.	.	.	16g	.	.	.
=34	=34	=34	=34	=34	=34	=34
16F#	1ryy	1ryy	8a	1ryy	1ryy	4.b]
16G	.	.	.	.	.	.
16E	.	.	8g	.	.	.
16F#	.	.	.	.	.	.
16G	.	.	8f#	.	.	.
16A	.	.	.	.	.	.
16F#	.	.	8b	.	.	16ee
16G	.	.	.	.	.	16dd
8A	.	.	4.e	.	.	16cc
.	.	.	.	.	.	16b
8G	.	.	.	.	.	16a
.	.	.	.	.	.	16b
8F#X	.	.	.	.	.	8cc
8B	.	.	8d#	.	.	16b
.	.	.	.	.	.	16a
=35	=35	=35	=35	=35	=35	=35
8E	1ryy	1ryy	8e	1ryy	1ryy	4g
16E	.	.	16cc	.	.	.
16D#	.	.	16b	.	.	.
8E	.	.	16a	.	.	[4cc
.	.	.	16g	.	.	.
8F#	.	.	16f#	.	.	.
.	.	.	16e	.	.	.
[2G	.	.	8d	.	.	8cc]
.	.	.	16g	.	.	16b
.	.	.	16fn	.	.	16a
.	.	.	16e	.	.	8b
.	.	.	16d	.	.	.
.	.	.	16c#	.	.	8cc#X
.	.	.	16B	.	.	.
=36	=36	=36	=36	=36	=36	=36
8G]	2r	1ryy	8A	1ryy	1ryy	[2dd
16F#	.	.	16dd	.	.	.
16E	.	.	16ccn	.	.	.
8F#	.	.	16b	.	.	.
.	.	.	16a	.	.	.
8G#	.	.	16g#	.	.	.
.	.	.	16f#	.	.	.
8A	8r	.	4e	.	.	8dd]
8r	16A	.	.	.	.	16cc
.	16G#	.	.	.	.	16b
4r	8A	.	4a	.	.	8cc
.	8B	.	.	.	.	8dd
=37	=37	=37	=37	=37	=37	=37
8r	8c	1ryy	8r	1ryy	1ryy	8ee
8A	16c	.	16a	.	.	8a
.	16B	.	16g#	.	.	.
8G	8c	.	8a	.	.	[4aa
8F	8d	.	8b	.	.	.
4E	16e	.	8cc	.	.	16aa]
.	16d	.	.	.	.	16gg#X
.	16c	.	16cc	.	.	16aa
.	16d	.	16b	.	.	16gg#
4r	8e	.	8cc	.	.	8aa
.	8f	.	8dd	.	.	8bb
=38	=38	=38	=38	=38	=38	=38
8r	8G#	1ryy	16ee	1ryy	1ryy	4.ee
.	.	.	16dd	.	.	.
16AA	8E	.	16cc	.	.	.
16BB	.	.	16dd	.	.	.
8C	8r	.	8ee	.	.	.
[8D	8A	.	8ff	.	.	16dd
.	.	.	.	.	.	16cc
8D]	16B	.	8g#	.	.	8b
.	16c	.	.	.	.	.
16C	16A	.	8e	.	.	16ee
16D	16B	.	.	.	.	16dd
8E	16c	.	8r	.	.	16cc
.	16d	.	.	.	.	16b
[8F	16B	.	8a	.	.	16a
.	16c	.	.	.	.	16g#X
=39	=39	=39	=39	=39	=39	=39
8F]	8d	1ryy	16b	1ryy	1ryy	8a
.	.	.	16cc	.	.	.
16E	8c	.	16a	.	.	8r
16D	.	.	16b	.	.	.
8E	8B	.	16cc	.	.	8g#
.	.	.	16dd	.	.	.
8C	8e	.	16b	.	.	8r
.	.	.	16cc	.	.	.
8F	4.A	.	8dd	.	.	4a
16E	.	.	8cc	.	.	.
16D	.	.	.	.	.	.
16E	.	.	8b	.	.	4r
16F	.	.	.	.	.	.
16E	[8G	.	8ee	.	.	.
16D	.	.	.	.	.	.
=40	=40	=40	=40	=40	=40	=40
8C#	8G]	1ryy	[4a	1ryy	1ryy	1ryy
8AA	16F	.	.	.	.	.
.	16E	.	.	.	.	.
8D	[4F	.	16a]	.	.	.
.	.	.	16ff	.	.	.
8Cn	.	.	16dd	.	.	.
.	.	.	16b	.	.	.
8BB	8F]	.	[4g	.	.	.
8GG	16E	.	.	.	.	.
.	16D	.	.	.	.	.
8C	[4E	.	16g]	.	.	.
.	.	.	16ee	.	.	.
8BB	.	.	16cc	.	.	.
.	.	.	16a	.	.	.
=41	=41	=41	=41	=41	=41	=41
8AA	4E]	1ryy	8f	1ryy	1ryy	1ryy
16BB	.	.	16g	.	.	.
16C	.	.	16a	.	.	.
8BB	[4D	.	16g	.	.	.
.	.	.	16f	.	.	.
8GG	.	.	16e	.	.	.
.	.	.	16f	.	.	.
4C	16D]	.	[2e	.	.	.
.	16C	.	.	.	.	.
.	16D	.	.	.	.	.
.	16E	.	.	.	.	.
8r	16F	.	.	.	.	.
.	16G	.	.	.	.	.
8BB	16A	.	.	.	.	.
.	16B	.	.	.	.	.
=42	=42	=42	=42	=42	=42	=42
4AA	[2c	1ryy	16e]	1ryy	1ryy	1ryy
.	.	.	16d	.	.	.
.	.	.	16e	.	.	.
.	.	.	16f	.	.	.
8r	.	.	16g	.	.	.
.	.	.	16a	.	.	.
8GG	.	.	16b	.	.	.
.	.	.	16cc	.	.	.
16FF	4c_	.	16d	.	.	.
16G	.	.	16e	.	.	.
16F	.	.	16d	.	.	.
16E	.	.	16e	.	.	.
16D	16c]	.	[4f	.	.	.
16C	16e	.	.	.	.	.
16BB	16d	.	.	.	.	.
16AA	16c	.	.	.	.	.
=43	=43	=43	=43	=43	=43	=43
*	*	*	*	*	*	*staff:8
8GG	8B	1ryy	16f]	1ryy	1ryy	8r
.	.	.	16a	.	.	.
8G	16e	.	16g	.	.	16cc
.	16d	.	16f	.	.	16b
8A	16c	.	8e	.	.	8cc
.	16B	.	.	.	.	.
8F	16A	.	8a	.	.	8dd
.	16B	.	.	.	.	.
8c	[2c	.	[2g	.	.	8ee
16C	.	.	.	.	.	16ee
16BB	.	.	.	.	.	16dd
8C	.	.	.	.	.	8ee
8D	.	.	.	.	.	8ff
=44	=44	=44	=44	=44	=44	=44
8E	8c]	1ryy	8g]	1ryy	1ryy	16gg
.	.	.	.	.	.	16ff
16E	4G	.	8cc	.	.	16ee
16D	.	.	.	.	.	16ff
8E	.	.	8b	.	.	8gg
8F#	[8d	.	8a	.	.	8aa
16G	8d]	.	8g	.	.	8b
16Fn	.	.	.	.	.	.
16E	8e	.	8g	.	.	8g
16F	.	.	.	.	.	.
8G	8d	.	8f	.	.	8r
8A	8c	.	8e	.	.	8cc
=45	=45	=45	=45	=45	=45	=45
8BB	4G	1ryy	16d	1ryy	1ryy	16dd
.	.	.	16g	.	.	16ee
8GG	.	.	16a	.	.	16cc
.	.	.	16b	.	.	16dd
8r	4r	.	2cc	.	.	16ee
.	.	.	.	.	.	16ff
8C	.	.	.	.	.	16dd
.	.	.	.	.	.	16ee
16D	4r	.	.	.	.	8ff
16E	.	.	.	.	.	.
16C	.	.	.	.	.	8ee
16D	.	.	.	.	.	.
16E	8r	.	8b	.	.	8dd
16F	.	.	.	.	.	.
16D	8G	.	8b-	.	.	8gg
16E	.	.	.	.	.	.
=46	=46	=46	=46	=46	=46	=46
8F	16A	1ryy	8a	1ryy	1ryy	16cc
.	16B	.	.	.	.	16bn
8E	16G	.	8r	.	.	16dd
.	16A	.	.	.	.	16cc
8D	16B	.	4r	.	.	16b
.	16c	.	.	.	.	16a
8G	16A	.	.	.	.	16g
.	16B	.	.	.	.	16f
8C	8c	.	4r	.	.	8e
16D	8B	.	.	.	.	16f
16E	.	.	.	.	.	16g
[4F	8A	.	8r	.	.	16a
.	.	.	.	.	.	16b
.	8d	.	[8d	.	.	16cc
.	.	.	.	.	.	16dd
=47	=47	=47	=47	=47	=47	=47
4F]	4.G	1ryy	16d]	1ryy	1ryy	8b
.	.	.	16e	.	.	.
.	.	.	16c	.	.	16a
.	.	.	16d	.	.	16g
8E	.	.	16e	.	.	2cc
.	.	.	16f	.	.	.
8A	8c	.	16d	.	.	.
.	.	.	16e	.	.	.
8D	16d	.	8f	.	.	.
.	16F	.	.	.	.	.
16E	16G	.	8e	.	.	.
16F	16A	.	.	.	.	.
8G	16B	.	8d	.	.	4b
.	16c	.	.	.	.	.
8GG	16d	.	8g	.	.	.
.	16B	.	.	.	.	.
=48	=48	=48	=48	=48	=48	=48
4C	4G	1ryy	16e	1ryy	1ryy	8cc
.	.	.	16f	.	.	.
.	.	.	16e	.	.	16ee
.	.	.	16d	.	.	16ff
8r	4r	.	16c	.	.	8ee
.	.	.	16B	.	.	.
8E	.	.	16A	.	.	8dd
.	.	.	16G#	.	.	.
16AA	2ryy	.	8A	.	.	8cc
16B-	.	.	.	.	.	.
16A	.	.	16a	.	.	8cc#
16Gn	.	.	16b-	.	.	.
16F	.	.	8a	.	.	8dd
16E	.	.	.	.	.	.
16D	.	.	8g	.	.	8ee
16C#	.	.	.	.	.	.
=49	=49	=49	=49	=49	=49	=49
[2D	8r	1ryy	8f	1ryy	1ryy	8a
.	16A	.	16f	.	.	16dd
.	16B-	.	16g	.	.	16ee
.	8A	.	8f	.	.	8dd
.	8G	.	8e	.	.	8cc
4.D]	8F	.	16d	.	.	16b
.	.	.	16e	.	.	16cc
.	16F	.	16f	.	.	16dd
.	16G	.	16e	.	.	16cc
.	8F	.	8d	.	.	8b
8E	8E	.	8c	.	.	8a
=50	=50	=50	=50	=50	=50	=50
[2F	16D	1ryy	8b	1ryy	1ryy	4g
.	16E	.	.	.	.	.
.	16F	.	8dd	.	.	.
.	16E	.	.	.	.	.
.	8D	.	8r	.	.	4r
.	8C	.	8a	.	.	.
16F]	8B	.	16g	.	.	2r
16G	.	.	16f	.	.	.
16F	8d	.	16a	.	.	.
16E	.	.	16g	.	.	.
[4D	8r	.	16f	.	.	.
.	.	.	16e	.	.	.
.	8A	.	16g	.	.	.
.	.	.	16f	.	.	.
=51	=51	=51	=51	=51	=51	=51
8D]	16G	1ryy	8e	1ryy	1ryy	1ryy
.	16F	.	.	.	.	.
4C	16A	.	8f	.	.	.
.	16G	.	.	.	.	.
.	16F	.	8g	.	.	.
.	16E	.	.	.	.	.
8BB	16G	.	8d	.	.	.
.	16F	.	.	.	.	.
8C	8E	.	16a	.	.	.
.	.	.	16b	.	.	.
8D	8F	.	16a	.	.	.
.	.	.	16b	.	.	.
[4GG	8G	.	8.bt	.	.	.
.	8D	.	.	.	.	.
.	.	.	32a	.	.	.
.	.	.	32b	.	.	.
=52	=52	=52	=52	=52	=52	=52
8GG]	16A	1ryy	16cc	1ryy	1ryy	1ryy
.	16B	.	16dd	.	.	.
8A	16A	.	16cc	.	.	.
.	16B	.	16dd	.	.	.
8G	8.Bt	.	8.ddT	.	.	.
8F	.	.	.	.	.	.
.	32A	.	32cc	.	.	.
.	32B	.	32dd	.	.	.
8E	[2c	.	16ee	.	.	.
.	.	.	16dd	.	.	.
8D	.	.	16cc	.	.	.
.	.	.	16b	.	.	.
8C	.	.	16a	.	.	.
.	.	.	16g	.	.	.
8E	.	.	16f#	.	.	.
.	.	.	16e	.	.	.
=53	=53	=53	=53	=53	=53	=53
8D	8c]	1ryy	8f#	1ryy	1ryy	2r
16D	8F#	.	8d	.	.	.
16E	.	.	.	.	.	.
8D	8G	.	8e	.	.	.
8C	8A	.	8f#	.	.	.
8BB	8B	.	8g	.	.	8r
16BB	8D	.	8f#X	.	.	16dd
16C	.	.	.	.	.	16ee
8BB	8E	.	8g	.	.	8dd
8AA	8F#X	.	8a	.	.	8cc
=54	=54	=54	=54	=54	=54	=54
16GG	4.G	1ryy	4.d	1ryy	1ryy	8b
16AA	.	.	.	.	.	.
16BB	.	.	.	.	.	16b
16AA	.	.	.	.	.	16cc
8GG	.	.	.	.	.	8b
8FF#	8A	.	8d#	.	.	8a
8E	[2B	.	8e	.	.	16g
.	.	.	.	.	.	16a
8G	.	.	16e	.	.	16b
.	.	.	16d#X	.	.	16a
8r	.	.	8e	.	.	8g
8Dn	.	.	8r	.	.	8f#
=55	=55	=55	=55	=55	=55	=55
16C	8B]	1ryy	8r	1ryy	1ryy	8ee
16BB	.	.	.	.	.	.
16D	8E	.	8g	.	.	8gg
16C	.	.	.	.	.	.
16BB	8F#	.	8a	.	.	8r
16AA	.	.	.	.	.	.
16C	8G	.	8b	.	.	8dd
16BB	.	.	.	.	.	.
8AA	8A	.	8cc	.	.	16cc
.	.	.	.	.	.	16b
8BB	8D	.	4g	.	.	16dd
.	.	.	.	.	.	16cc
8C	8E	.	.	.	.	16b
.	.	.	.	.	.	16a
8GG	16D	.	16f#	.	.	16cc
.	16E	.	16g	.	.	16b
=56	=56	=56	=56	=56	=56	=56
4D	16F#	1ryy	8a	1ryy	1ryy	8a
.	16G	.	.	.	.	.
.	16E	.	8r	.	.	8b
.	16F#	.	.	.	.	.
4E	16G	.	4r	.	.	8cc
.	16A	.	.	.	.	.
.	16F#	.	.	.	.	8g
.	16G	.	.	.	.	.
4F#X	8A	.	2r	.	.	16dd
.	.	.	.	.	.	16ee
.	16B	.	.	.	.	16dd
.	16c	.	.	.	.	16ee
4G	16B	.	.	.	.	8.eet
.	16c	.	.	.	.	.
.	16A	.	.	.	.	.
.	16B	.	.	.	.	32dd
.	.	.	.	.	.	32ee
=57	=57	=57	=57	=57	=57	=57
4A	8c	1ryy	16r	1ryy	1ryy	[2ff
.	.	.	16ee	.	.	.
.	16d	.	16dd	.	.	.
.	16e	.	16cc	.	.	.
8B	8d	.	16b	.	.	.
.	.	.	16a	.	.	.
8A	8c	.	16g#	.	.	.
.	.	.	16a	.	.	.
8G#	8B	.	[2b	.	.	8ff]
8E	8G#X	.	.	.	.	16ee
.	.	.	.	.	.	16ff
8F#	8A	.	.	.	.	8ee
8G#	8B	.	.	.	.	8dd
=58	=58	=58	=58	=58	=58	=58
8A	8c	1ryy	8b]	1ryy	1ryy	8cc
8C	8E	.	16e	.	.	16cc
.	.	.	16f	.	.	16dd
8D	8F#	.	8e	.	.	8cc
8E	8G#	.	8d	.	.	8b
4Fn	4A	.	8c	.	.	16a
.	.	.	.	.	.	16b
.	.	.	16c	.	.	16cc
.	.	.	16d	.	.	16b
8r	8r	.	8c	.	.	8a
8C#	8E	.	8B-	.	.	8g
=59	=59	=59	=59	=59	=59	=59
8D	8F	1ryy	16A	1ryy	1ryy	8ff
.	.	.	16Bn	.	.	.
8E	8G	.	16c#	.	.	8aa
.	.	.	16B	.	.	.
8F	8A	.	8A	.	.	8r
8C#	8B-	.	8G	.	.	8ee
4D	8A	.	8f#	.	.	16dd
.	.	.	.	.	.	16ccn
.	16G#	.	8b	.	.	16ee
.	16F#	.	.	.	.	16dd
[4AA	8E	.	8r	.	.	16cc
.	.	.	.	.	.	16b
.	8A	.	8e	.	.	16dd
.	.	.	.	.	.	16cc
=60	=60	=60	=60	=60	=60	=60
8AA]	8Fn	1ryy	16d	1ryy	1ryy	4.b
.	.	.	16c	.	.	.
8GG#	4E	.	16e	.	.	.
.	.	.	16d	.	.	.
4AA	.	.	16c	.	.	.
.	.	.	16B	.	.	.
.	16F	.	16d	.	.	[8a
.	16D#	.	16c	.	.	.
[2EE	[2E	.	8B	.	.	16a]
.	.	.	.	.	.	16b
.	.	.	8c	.	.	16g#
.	.	.	.	.	.	16a
.	.	.	16d	.	.	[4b
.	.	.	16c	.	.	.
.	.	.	16e	.	.	.
.	.	.	16d	.	.	.
=61	=61	=61	=61	=61	=61	=61
1EE_	1E_	1ryy	8c	1ryy	1ryy	16b]
.	.	.	.	.	.	16cc
.	.	.	8d	.	.	16a
.	.	.	.	.	.	16b
.	.	.	16e	.	.	[4cc
.	.	.	16d	.	.	.
.	.	.	16f	.	.	.
.	.	.	16e	.	.	.
.	.	.	8d	.	.	16cc]
.	.	.	.	.	.	16dd
.	.	.	8e	.	.	16b
.	.	.	.	.	.	16cc
.	.	.	[4f	.	.	16dd
.	.	.	.	.	.	16cc
.	.	.	.	.	.	16b
.	.	.	.	.	.	16a
=62	=62	=62	=62	=62	=62	=62
8EE]	8E]	1ryy	8f]	1ryy	1ryy	16g#
.	.	.	.	.	.	16b
16E	8r	.	8e	.	.	16cc
16F	.	.	.	.	.	16dd
8E	4r	.	8r	.	.	16ee
.	.	.	.	.	.	16ff
8D	.	.	16r	.	.	[8ggn
.	.	.	16b-	.	.	.
8C#	8r	.	[4a	.	.	16gg]
.	.	.	.	.	.	16aa
16C#	16E	.	.	.	.	16gg
16D	16F	.	.	.	.	16ff
8C#	8E	.	16a]	.	.	[4gg
.	.	.	16cc#	.	.	.
8BB	8D	.	16ee	.	.	.
.	.	.	16dd	.	.	.
=63	=63	=63	=63	=63	=63	=63
16AA	8C#	1ryy	[4ee	1ryy	1ryy	16gg]
16BB	.	.	.	.	.	16ff
16C#	16C#X	.	.	.	.	16ee
16BB	16D	.	.	.	.	16ff
8AA	8C#	.	16ee]	.	.	[4gg
.	.	.	16a	.	.	.
8GG	8BB-	.	16cc#	.	.	.
.	.	.	16dd	.	.	.
4FF	4AA	.	16ee	.	.	16gg]
.	.	.	16cc#X	.	.	16bb-
.	.	.	8dd	.	.	16aa
.	.	.	.	.	.	16gg
8r	8r	.	8r	.	.	16ff
.	.	.	.	.	.	16ee
8F	16f	.	16a	.	.	16dd
.	16e	.	16g	.	.	16cc#X
=64	=64	=64	=64	=64	=64	=64
8B-	4.d	1ryy	8f	1ryy	1ryy	16dd
.	.	.	.	.	.	16ee
8G	.	.	8b-	.	.	16dd
.	.	.	.	.	.	16ee
4A	.	.	8a	.	.	8.ee
.	8c#	.	[8g	.	.	.
.	.	.	.	.	.	16dd
8D	8d	.	8g]	.	.	[2dd
16D	8A	.	16f	.	.	.
16C#X	.	.	16e	.	.	.
8D	4r	.	16f	.	.	.
.	.	.	16g	.	.	.
8E	.	.	16a	.	.	.
.	.	.	16f	.	.	.
=65	=65	=65	=65	=65	=65	=65
8F	8r	1ryy	4d	1ryy	1ryy	4dd]
16F	16A	.	.	.	.	.
16E	16G#	.	.	.	.	.
8F#	8A	.	4r	.	.	4r
8G#	8B	.	.	.	.	.
16A	8c	.	2r	.	.	2r
16G#X	.	.	.	.	.	.
16F#X	16c	.	.	.	.	.
16G#	16B	.	.	.	.	.
8A	8c	.	.	.	.	.
8B	8d	.	.	.	.	.
=66	=66	=66	=66	=66	=66	=66
8C	16e	1ryy	1r	1ryy	1ryy	1r
.	16d	.	.	.	.	.
8AA	16c	.	.	.	.	.
.	16d	.	.	.	.	.
8r	8e	.	.	.	.	.
8D	8f	.	.	.	.	.
16E	8G#	.	.	.	.	.
16F	.	.	.	.	.	.
16D	8E	.	.	.	.	.
16E	.	.	.	.	.	.
16F	8r	.	.	.	.	.
16Gn	.	.	.	.	.	.
16E	8A	.	.	.	.	.
16F#	.	.	.	.	.	.
=67	=67	=67	=67	=67	=67	=67
8G	16B	1ryy	1r	1ryy	1ryy	2r
.	16c	.	.	.	.	.
8Fn	16A	.	.	.	.	.
.	16B	.	.	.	.	.
8E	16c	.	.	.	.	.
.	16d	.	.	.	.	.
8A	16B	.	.	.	.	.
.	16c#	.	.	.	.	.
8D	8d	.	.	.	.	8r
[8A	8cn	.	.	.	.	16ee
.	.	.	.	.	.	16ff
16A]	8B	.	.	.	.	8ee
16G#	.	.	.	.	.	.
16A	8e	.	.	.	.	8dd
16G#	.	.	.	.	.	.
=68	=68	=68	=68	=68	=68	=68
[4A	4A	1ryy	8r	1ryy	1ryy	8cc
.	.	.	16a	.	.	16cc
.	.	.	16b	.	.	16dd
16A]	4r	.	8a	.	.	8cc
16Gn	.	.	.	.	.	.
16F	.	.	8g	.	.	8b-
16E	.	.	.	.	.	.
[4F	8r	.	8f	.	.	16a
.	.	.	.	.	.	16b-
.	16A	.	16f	.	.	16cc
.	16B-	.	16g	.	.	16b-
16F]	8c	.	8f	.	.	8a
16E	.	.	.	.	.	.
16D	8B-	.	8e	.	.	8g
16C#	.	.	.	.	.	.
=69	=69	=69	=69	=69	=69	=69
8D	8A	1ryy	16d	1ryy	1ryy	8ff
.	.	.	16e	.	.	.
*clefG2	*clefG2	*	*	*	*	*
8r	16d	.	16f	.	.	8aa
.	16e	.	16e	.	.	.
4r	16f	.	8d	.	.	8r
.	16g	.	.	.	.	.
.	[8a	.	8c#	.	.	8ee
2ryy	8a]	.	8b-	.	.	16dd
.	.	.	.	.	.	16cc#X
.	4g	.	8dd	.	.	16ee
.	.	.	.	.	.	16dd
.	.	.	8r	.	.	16cc#X
.	.	.	.	.	.	16bn
.	[8f	.	8a	.	.	16dd
.	.	.	.	.	.	16ccn
=70	=70	=70	=70	=70	=70	=70
*	*staff:5	*	*staff:6	*	*	*staff:6
1ryy	8f]	1ryy	16g	1ryy	1ryy	8b
.	.	.	16f	.	.	.
.	8e	.	16a	.	.	8cc#
.	.	.	16g	.	.	.
.	[4d	.	16f	.	.	8dd
.	.	.	16e	.	.	.
.	.	.	16g	.	.	8a
.	.	.	16f	.	.	.
.	16d]	.	8e	.	.	[2ee
.	16c#	.	.	.	.	.
.	16e	.	8f	.	.	.
.	16d	.	.	.	.	.
.	16c#	.	4g	.	.	.
.	16B	.	.	.	.	.
.	16d	.	.	.	.	.
.	16c#	.	.	.	.	.
=71	=71	=71	=71	=71	=71	=71
1ryy	[4d	1ryy	4f	1ryy	1ryy	16ee]
.	.	.	.	.	.	16cc#
.	.	.	.	.	.	16dd
.	.	.	.	.	.	16ff
.	16d]	.	8e	.	.	[4gg
.	16B	.	.	.	.	.
.	16c#	.	[8a	.	.	.
.	16e	.	.	.	.	.
.	[4f	.	16a]	.	.	16gg]
.	.	.	16cc#	.	.	16ee
.	.	.	8dd	.	.	16ff
.	.	.	.	.	.	16aa
.	16f]	.	8g	.	.	[4bb-
.	16d	.	.	.	.	.
.	16e	.	[8ccn	.	.	.
.	16g	.	.	.	.	.
=72	=72	=72	=72	=72	=72	=72
1ryy	[4a	1ryy	16cc]	1ryy	1ryy	16bb-]
.	.	.	16ee	.	.	16gg
.	.	.	8ff	.	.	16aa
.	.	.	.	.	.	16ccc
.	16a]	.	[4b-X	.	.	8dd
.	16f	.	.	.	.	.
.	16g	.	.	.	.	16ee
.	16b-	.	.	.	.	16gg
.	8e	.	16b-]	.	.	[4cc
.	.	.	16g	.	.	.
.	8f	.	16a	.	.	.
.	.	.	16cc	.	.	.
.	4B-X	.	4d	.	.	16cc]
.	.	.	.	.	.	16f
.	.	.	.	.	.	16g
.	.	.	.	.	.	[16b-X
*	*clefF4	*	*	*	*	*
=73	=73	=73	=73	=73	=73	=73
*clefF4	*	*	*	*	*	*
8r	[2c	1ryy	8e	1ryy	1ryy	16b-]
.	.	.	.	.	.	16b-X
16C	.	.	4f	.	.	16a
16D	.	.	.	.	.	16g
8C	.	.	.	.	.	8.g
8BB-	.	.	8e	.	.	.
.	.	.	.	.	.	16f
8AA	8c]	.	8f	.	.	4f
16AA	8C	.	16cc	.	.	.
16BB-	.	.	16dd	.	.	.
8AA	8D	.	8cc	.	.	[4cc
8GG	8E	.	8b-X	.	.	.
=74	=74	=74	=74	=74	=74	=74
16FF	8F	1ryy	8a	1ryy	1ryy	1cc_
16GG	.	.	.	.	.	.
16AA	8E	.	16a	.	.	.
16GG	.	.	16b-	.	.	.
8FF	8F	.	8a	.	.	.
8EE-	8G	.	8g	.	.	.
8D	16A	.	16f#	.	.	.
.	16G	.	16g	.	.	.
8F#	16F#X	.	16a	.	.	.
.	16G	.	16g	.	.	.
8r	16A	.	8f#X	.	.	.
.	16B-	.	.	.	.	.
8C	8c	.	8e-	.	.	.
=75	=75	=75	=75	=75	=75	=75
16BB-	8F#	1ryy	8dd	1ryy	1ryy	8cc]
16AA	.	.	.	.	.	.
16C	8A	.	8ff#	.	.	8a
16BB-	.	.	.	.	.	.
16AA	8G	.	8r	.	.	[4ee-
16GG	.	.	.	.	.	.
16BB-	8F#	.	8cc	.	.	.
16AA	.	.	.	.	.	.
4.GG	8G	.	16b-	.	.	8ee-]
.	.	.	16a	.	.	.
.	8Fn	.	16cc	.	.	8dd
.	.	.	16b-	.	.	.
.	8E-	.	16a	.	.	16cc
.	.	.	16g	.	.	16b-X
8FF#	[8D	.	16b-	.	.	16dd
.	.	.	16a	.	.	16cc
=76	=76	=76	=76	=76	=76	=76
[1GG	8D]	1ryy	8g	1ryy	1ryy	16b-
.	.	.	.	.	.	16cc
.	16G	.	8r	.	.	16dd
.	16A	.	.	.	.	16cc
.	8G	.	4r	.	.	16b-
.	.	.	.	.	.	16a
.	8F	.	.	.	.	16g
.	.	.	.	.	.	16f
.	8E	.	2r	.	.	16g
.	.	.	.	.	.	16a
.	16E	.	.	.	.	16b-
.	16F	.	.	.	.	16a
.	8E	.	.	.	.	16g
.	.	.	.	.	.	16f
.	8D	.	.	.	.	16e
.	.	.	.	.	.	16d
=77	=77	=77	=77	=77	=77	=77
2GG_	16C#	1ryy	8r	1ryy	1ryy	2ee
.	16D	.	.	.	.	.
.	16E	.	16a	.	.	.
.	16D	.	16g	.	.	.
.	8C#	.	8a	.	.	.
.	8BB	.	8b	.	.	.
8GG]	8A	.	8cc#	.	.	8r
16E	8c#X	.	16cc#	.	.	16ee
16F	.	.	16b	.	.	16dd
16G	8r	.	8cc#	.	.	8ee
16F	.	.	.	.	.	.
16E	8a	.	8dd	.	.	8ff
16D	.	.	.	.	.	.
=78	=78	=78	=78	=78	=78	=78
8C#	8.b-	1ryy	16ee	1ryy	1ryy	8gg
.	.	.	16dd	.	.	.
8r	.	.	16cc#	.	.	16gg
.	16a	.	16dd	.	.	16ff
4r	16g	.	8ee	.	.	8gg
.	16f	.	.	.	.	.
.	16e	.	8ff	.	.	8aa
.	16d	.	.	.	.	.
8r	4c#X	.	8g	.	.	16bb-
.	.	.	.	.	.	16aa
8e	.	.	8e	.	.	16gg
.	.	.	.	.	.	16aa
8c#X	8r	.	8r	.	.	16bb-
.	.	.	.	.	.	16gg
8A	8c#	.	8a	.	.	16aa
.	.	.	.	.	.	16ee
=79	=79	=79	=79	=79	=79	=79
8D	8d	1ryy	8a	1ryy	1ryy	16ff
.	.	.	.	.	.	16ee
8r	8f	.	8dd	.	.	16dd
.	.	.	.	.	.	16ee
4r	8d	.	8a	.	.	16ff
.	.	.	.	.	.	16dd
.	8A	.	8g	.	.	16ee
.	.	.	.	.	.	16cc#
8D	8B-	.	8f	.	.	16dd
.	.	.	.	.	.	16ccn
8r	8F	.	8d	.	.	16b-
.	.	.	.	.	.	16cc
4r	8B-	.	8f	.	.	16dd
.	.	.	.	.	.	16b-
.	8d	.	8f	.	.	16cc
.	.	.	.	.	.	16a
=80	=80	=80	=80	=80	=80	=80
*	*	*	*	*	*staff:4	*
*	*	*	*	*	*clefG2	*
4D	4Bn	1ryy	4e;y	1ryy	2ryy	4bn;y 4ee;y 4gg#;
4r	4r	.	4r	.	.	4r
4D#	4A	.	4c	.	8r	[2aa
.	.	.	.	.	16a	.
.	.	.	.	.	16g#X	.
4r	4r	.	4ryy	.	8a	.
.	.	.	.	.	8b	.
=81	=81	=81	=81	=81	=81	=81
*	*	*	*staff:3	*	*	*
*	*	*	*clefF4	*	*	*
4E	4A	1ryy	4c	1ryy	8cc	8aa]
.	.	.	.	.	16cc	16ee
.	.	.	.	.	16b	16dd
4r	4ryy	.	4r	.	8cc	8ee
.	.	.	.	.	8dd	8ff#
4E	4d	.	4B	.	16ee	8gg#
.	.	.	.	.	16dd	.
.	.	.	.	.	16cc	16gg#
.	.	.	.	.	16dd	16ff#X
4r	4ryy	.	4r	.	8ee	8gg#
.	.	.	.	.	8ffn	8aa
=82	=82	=82	=82	=82	=82	=82
*	*	*	*staff:4	*	*	*
*	*	*	*clefG2	*	*	*
2r	2ryy	1ryy	8r	1ryy	8g#	16bb
.	.	.	.	.	.	16aa
.	.	.	16B	.	8e	16gg#X
.	.	.	16c	.	.	16aa
.	.	.	16d	.	8r	8bb
.	.	.	16e	.	.	.
.	.	.	16f#	.	8a	8ccc
.	.	.	16g#X	.	.	.
4F#	4A	.	4f#	.	4a	4b 4dd#
8r	8r	.	8r	.	8r	8r
8G#	8B	.	8e	.	8b	8ee
=83	=83	=83	=83	=83	=83	=83
8A	8c	1ryy	8e	1ryy	4a	8cc
8D	8d	.	8fn	.	.	16b
.	.	.	.	.	.	16a
4E	8c	.	4e	.	8a	16cc
.	.	.	.	.	.	16b
.	8B	.	.	.	8d	16a
.	.	.	.	.	.	16g#
[2AA	8A	.	4e	.	4c#	4a
.	16A	.	.	.	.	.
.	16B-	.	.	.	.	.
.	8A	.	8r	.	4ryy	4r
.	8Gn	.	8e	.	.	.
=84	=84	=84	=84	=84	=84	=84
1AA_	8F	1ryy	8A	1ryy	1ryy	2r
.	16F	.	16a	.	.	.
.	16G	.	16b-	.	.	.
.	8F	.	8a	.	.	.
.	8E	.	8g	.	.	.
.	16D	.	8f	.	.	8r
.	16E	.	.	.	.	.
.	16F	.	16f	.	.	16dd
.	16E	.	16g	.	.	16cc#
.	8D	.	8f	.	.	8dd
.	8C#	.	8e	.	.	8ee
=85	=85	=85	=85	=85	=85	=85
*	*	*	*staff:1	*	*staff:2	*
*	*	*	*clefF4	*	*	*
1AA_	8D	1ryy	8d	1ryy	8r	8ff
.	8F	.	16A	.	16a	16ff
.	.	.	16B	.	16g	16ee
.	8E	.	8c#	.	8a	8ff
.	8D	.	8d	.	8b	8gg
.	4G	.	4e	.	8cc#	16aa
.	.	.	.	.	.	16gg
.	.	.	.	.	16cc#	16ff
.	.	.	.	.	16b	16gg
.	8r	.	8r	.	8cc#	8aa
.	8F	.	8d	.	8dd	8bb-
=86	=86	=86	=86	=86	=86	=86
1AA_	4E	1ryy	4g	1ryy	16ee	8cc#
.	.	.	.	.	16dd	.
.	.	.	.	.	16cc#X	8a
.	.	.	.	.	16dd	.
.	8r	.	8r	.	8ee	8r
.	8D	.	16f	.	8ff	[8dd
.	.	.	16e	.	.	.
.	2B	.	4d	.	4g#	16dd]
.	.	.	.	.	.	16ccn
.	.	.	.	.	.	16b
.	.	.	.	.	.	16cc
.	.	.	8r	.	8r	16dd
.	.	.	.	.	.	16ee
.	.	.	16d	.	[8dd	16ff#
.	.	.	16e	.	.	16gg#X
=87	=87	=87	=87	=87	=87	=87
*	*	*staff:1	*	*staff:2	*	*
*	*	*clefF4	*	*clefG2	*	*
1AA]	1A	8r	8f	8r	8dd]	1aa;
.	.	16c#	16e	16cc#	16ee	.
.	.	16B	16d	16dd	16ffn	.
.	.	8c#	8e	8r	8cc# 8ee	.
.	.	8d	8f	16r	8b 8dd	.
.	.	.	.	16g#	.	.
.	.	2e	2e	2a;y	2cc#X;	.
==	==	==	==	==	==	==
*-	*-	*-	*-	*-	*-	*-
!!!AFR:  fugue
!!!EFL:  40/96
!!!END:  1994/01/19/
!!!VID:  4271254601 Bach, BWV 865-02
!!!AST:  Baroque
!!!OCY:  Deutschland
!!!ODT:  1722///
!!!PDT:  1801///
!!!EED:  Walter Hewlett
!!!ENC:  Walter Hewlett
!!!YOR:  Bach Gesellschaft Edition xiv
!!!AFT:  enhanced SCORE
!!!RDT:  2011/10/07/ by Andreas Kornstaedt using massScr2hmd
!!!SCA1: Thematisch-systematisches Verzeichnis der musikalischen Werke 
!!!SCA2: Johann Sebastian Bach: Bach-Werke-Verzeichnis (Schmieder)
!!!YEC1: Copyright 1994, 2000 Center for Computer Assisted Research 
!!!YEC2: in the Humanities
!!!YEM1: Rights to all derivative editions reserved.
!!!YEM2: Refer to licensing agreement for further details.
!!!YEN:  United States of America
!!!ref:  @{OTL}, @{SCT}
!!muse2ps: T^@{OTL} @{ONM} in @{OKY}^C^J.S. Bach\n@{SCT}-@{OMV}^
!!muse2ps: u^@{OPR@ENG}, @{OVM@ENG}^j
